X:3839
T:Lovely Lough Sheelin
O:england
R:Highland
C:Ed Reavy
M:4/4
L:1/8
N:The lake near Ed's home in County Cavan.
K:D
D2 FA dAFD|E2 CD A,ECE|D2 FA dAFA|fdec dBAF|
D2 FA dAFD|E2 FA dAFD|E2 CE A,ECE|D2 FA dAFA|
fdec d2 dg|f2 af defa|gbed dAAg|f2 af defa|
gbec d2 dg|f2 af defa|gbed cAAg|(3fga ec defg|
(3agf ge fd d2:||


